src/assets/images/icons/icon-statistics.svg

<?xml version="1.0" encoding="UTF-8"?>
<svg width="18px" height="18px" viewBox="0 0 18 18" version="1.1" xmlns="http://www.w3.org/2000/svg" xmlns:xlink="http://www.w3.org/1999/xlink">
    <!-- Generator: Sketch 52.6 (67491) - http://www.bohemiancoding.com/sketch -->
    <title>icon-statistics</title>
    <desc>Created with Sketch.</desc>
    <g id="Page-1" stroke="none" stroke-width="1" fill="none" fill-rule="evenodd">
        <g id="icon-statistics" fill="#EF8933">
            <path d="M17,14 C16.4477153,14 16,13.5522847 16,13 L16,1 C16,0.44771525 16.4477153,1.01453063e-16 17,0 C17.5522847,-1.01453063e-16 18,0.44771525 18,1 L18,13 C18,13.5522847 17.5522847,14 17,14 Z M13,14 C12.4477153,14 12,13.5522847 12,13 L12,5 C12,4.44771525 12.4477153,4 13,4 C13.5522847,4 14,4.44771525 14,5 L14,13 C14,13.5522847 13.5522847,14 13,14 Z M9,14 C8.44771525,14 8,13.5522847 8,13 L8,1 C8,0.44771525 8.44771525,1.01453063e-16 9,0 C9.55228475,-1.01453063e-16 10,0.44771525 10,1 L10,13 C10,13.5522847 9.55228475,14 9,14 Z M5,14 C4.44771525,14 4,13.5522847 4,13 L4,5 C4,4.44771525 4.44771525,4 5,4 C5.55228475,4 6,4.44771525 6,5 L6,13 C6,13.5522847 5.55228475,14 5,14 Z M1,14 C0.44771525,14 6.76353751e-17,13.5522847 0,13 L0,7 C-6.76353751e-17,6.44771525 0.44771525,6 1,6 C1.55228475,6 2,6.44771525 2,7 L2,13 C2,13.5522847 1.55228475,14 1,14 Z M1,16 L17,16 C17.5522847,16 18,16.4477153 18,17 C18,17.5522847 17.5522847,18 17,18 L1,18 C0.44771525,18 6.76353751e-17,17.5522847 0,17 C-6.76353751e-17,16.4477153 0.44771525,16 1,16 Z" id="Shape"></path>
        </g>
    </g>
</svg>

<svg xmlns="http://www.w3.org/2000/svg" width="18" height="18">
    <path fill="#60DB97" fill-rule="evenodd" d="M17 14a1 1 0 0 1-1-1V1a1 1 0 0 1 2 0v12a1 1 0 0 1-1 1zm-4 0a1 1 0 0 1-1-1V5a1 1 0 0 1 2 0v8a1 1 0 0 1-1 1zm-4 0a1 1 0 0 1-1-1V1a1 1 0 0 1 2 0v12a1 1 0 0 1-1 1zm-4 0a1 1 0 0 1-1-1V5a1 1 0 0 1 2 0v8a1 1 0 0 1-1 1zm-4 0a1 1 0 0 1-1-1V7a1 1 0 0 1 2 0v6a1 1 0 0 1-1 1zm0 2h16a1 1 0 0 1 0 2H1a1 1 0 0 1 0-2z"/>
</svg>
